assets/img/banner-b2b.svg

<svg width="700" height="546" viewBox="0 0 700 546" fill="none" xmlns="http://www.w3.org/2000/svg"><g clip-path="url(#a)"><path opacity=".2" d="M549.307 202.782C519.867 87.018 418.144 3.454 298.743.102 235.62-1.67 169.196 19.265 120.835 92.526c-86.451 130.96 5.312 221.458 69.288 264.461a400.314 400.314 0 0 1 82.742 74.368c43.213 51.28 126.345 115.001 225.352 15.159 71.761-72.366 70.699-166.623 51.09-243.732z" fill="#F2F2F2"/><path d="M700 228.558c0 30.045-24.356 77.996-54.401 77.996s-54.401-47.951-54.401-77.996a54.401 54.401 0 0 1 108.802 0z" fill="#FF6584"/><path d="M647.614 308.489c-6.836 2.354-8.473 11.676-6.121 18.513 2.351 6.838 7.331 12.509 9.837 19.291a57.824 57.824 0 0 1 2.452 10.514c1.431 8.508 2.867 17.166 1.764 25.723-1.046 8.117-4.335 15.77-8.004 23.086a216.021 216.021 0 0 1-25.773 39.779" stroke="#2F2E41" stroke-width="2"/><path d="M650.842 311.798c-3.495-2.244-6.991-2.244-10.487 0v-10.487h10.487v10.487z" fill="#FF6584"/><path d="M640.383 306.332a11.539 11.539 0 0 0 10.505-.043" stroke="#2F2E41" stroke-width="2"/><path opacity=".4" d="M668.211 219.382c6.335 0 11.47-6.162 11.47-13.764 0-7.602-5.135-13.764-11.47-13.764-6.334 0-11.47 6.162-11.47 13.764 0 7.602 5.136 13.764 11.47 13.764z" fill="#fff"/><path d="M0 220.037c0 30.045 24.356 77.997 54.4 77.997 30.045 0 54.402-47.952 54.402-77.997a54.4 54.4 0 0 0-108.802 0z" fill="#FF6584"/><path d="M52.386 299.968c6.837 2.354 8.473 11.677 6.122 18.514-2.352 6.837-7.332 12.509-9.838 19.291a57.792 57.792 0 0 0-2.452 10.514c-1.431 8.508-2.867 17.166-1.764 25.722 1.047 8.118 4.335 15.77 8.005 23.086a215.948 215.948 0 0 0 25.773 39.779" stroke="#2F2E41" stroke-width="2"/><path d="M49.157 303.277c3.496-2.243 6.992-2.243 10.487 0V292.79H49.157v10.487z" fill="#FF6584"/><path d="M59.617 297.812a11.528 11.528 0 0 1-10.506-.044" stroke="#2F2E41" stroke-width="2"/><path opacity=".4" d="M31.788 210.861c6.335 0 11.47-6.162 11.47-13.764 0-7.601-5.135-13.764-11.47-13.764-6.334 0-11.47 6.163-11.47 13.764 0 7.602 5.136 13.764 11.47 13.764z" fill="#fff"/><path d="M660.674 459.27c0 30.949-145.549 85.861-325.093 85.861-179.545 0-308.053-111.279-308.053-142.228 0-30.95 128.508 30.149 308.053 30.149 179.544 0 325.093-4.732 325.093 26.218z" fill="#E1E1E1"/><path opacity=".1" d="M660.674 459.27c0 30.949-145.549 85.861-325.093 85.861-179.545 0-308.053-111.279-308.053-142.228 0-30.95 128.508 30.149 308.053 30.149 179.544 0 325.093-4.732 325.093 26.218z" fill="#000"/><path d="M660.674 458.942c0 30.95-145.549 56.039-325.093 56.039-179.545 0-308.053-81.129-308.053-112.078 0-30.95 128.508 0 308.053 0 179.544 0 325.093 25.089 325.093 56.039z" fill="#E1E1E1"/><path d="M285.893 371.725l-6.584 42.033s-32.411 17.219-9.622 17.725c22.79.507 130.153 0 130.153 0s20.763 0-12.155-18.231l-6.583-44.06-95.209 2.533z" fill="#7F7E84"/><path opacity=".1" d="M265.102 431.027c5.175-4.605 14.206-9.404 14.206-9.404l6.584-42.033 95.209.089 6.583 41.438c7.677 4.251 12.432 7.511 15.214 10.011 4.228-.965 8.848-4.55-15.214-17.876l-6.583-44.06-95.209 2.533-6.584 42.033s-27.235 14.471-14.206 17.269z" fill="#000"/><path d="M532.382 78.755H133.599c-8.329 0-15.081 6.752-15.081 15.082v268.63c0 8.329 6.752 15.082 15.081 15.082h398.783c8.329 0 15.082-6.753 15.082-15.082V93.837c0-8.33-6.753-15.082-15.082-15.082z" fill="#7F7E84"/><path d="M533.03 94.707H132.95V318.55h400.08V94.708z" fill="#E1E1E1"/><path d="M332.99 90.15a2.532 2.532 0 1 0 0-5.064 2.532 2.532 0 0 0 0 5.064z" fill="#F2F2F2"/><path d="M547.464 336.274v26.193a15.082 15.082 0 0 1-15.082 15.081H133.599a15.062 15.062 0 0 1-10.665-4.416 15.062 15.062 0 0 1-4.416-10.665v-26.193h428.946z" fill="#7F7E84"/><path d="M444.911 458.83v5.065H172.452v-4.051l.375-1.014 6.715-18.231H439.34l5.571 18.231zm104.852-4.957c-.497 2.121-2.37 4.36-6.604 6.477-15.193 7.596-46.085-2.026-46.085-2.026s-23.803-4.051-23.803-14.686a18.928 18.928 0 0 1 2.087-1.241c6.388-3.379 27.566-11.718 65.119.353a15.658 15.658 0 0 1 7.138 4.678c1.522 1.781 2.715 4.041 2.148 6.445z" fill="#2F2E41"/><path opacity=".1" d="M549.763 453.873c-18.596 7.125-35.171 7.657-52.182-4.158-8.579-5.956-16.373-7.43-22.223-7.318 6.388-3.379 27.567-11.718 65.119.353a15.653 15.653 0 0 1 7.138 4.678c1.522 1.781 2.715 4.041 2.148 6.445z" fill="#000"/><path d="M526.447 449.715c3.636 0 6.583-.907 6.583-2.026 0-1.119-2.947-2.026-6.583-2.026s-6.584.907-6.584 2.026c0 1.119 2.948 2.026 6.584 2.026zM332.99 366.66a9.622 9.622 0 1 0 0-19.244 9.622 9.622 0 0 0 0 19.244z" fill="#F2F2F2"/><path opacity=".1" d="M444.911 458.83v5.065H172.452v-4.051l.375-1.014h272.084z" fill="#000"/><path d="M570.929 199.687c-6.837 2.354-8.473 11.677-6.122 18.514 2.352 6.837 7.332 12.509 9.838 19.291a57.782 57.782 0 0 1 2.451 10.514c1.432 8.508 2.868 17.166 1.764 25.722-1.046 8.118-4.335 15.771-8.003 23.087a215.933 215.933 0 0 1-25.774 39.778" stroke="#2F2E41" stroke-width="2"/><path d="M623.315 119.757c0 30.044-24.356 77.996-54.401 77.996-30.044 0-54.4-47.952-54.4-77.996a54.402 54.402 0 1 1 108.801 0z" fill="#EE4744"/><path d="M574.158 202.996c-3.496-2.243-6.991-2.243-10.487 0v-10.487h10.487v10.487z" fill="#EE4744"/><path d="M563.698 197.531a11.534 11.534 0 0 0 10.506-.043" stroke="#2F2E41" stroke-width="2"/><path opacity=".4" d="M591.527 110.581c6.334 0 11.47-6.163 11.47-13.764 0-7.602-5.136-13.765-11.47-13.765-6.335 0-11.47 6.163-11.47 13.764 0 7.602 5.135 13.765 11.47 13.765z" fill="#fff"/><path d="M395.622 189.126v56.725l-14.995 30.254v.003l-.476.955-39.699-2.622-15.261-1.009-35.42-2.34v-67.853l35.42.999 15.839.448 40.072 1.132 14.52-16.692z" fill="#FF5E5B"/><path opacity=".1" d="M395.623 192.472v53.379l-3.664 7.39v.003l-3.757 7.575v.003l-7.575 15.283.847-56.725.171-11.443 7.203-7.968v-.003l3.14-3.474 3.635-4.02z" fill="#000"/><path d="M397.658 174.063v19.813l-2.036 3.243-3.637 5.794-3.221 5.133-7.119 11.342-.171-.008-94.824-4.877v-19.542l.24-.257 11.32-12.255 4.098-4.435 7.412-8.023 87.938 4.072z" fill="#FF5E5B"/><path opacity=".1" d="M381.645 199.847v19.541l-94.995-4.885v-19.542l.24-.257 94.755 5.143z" fill="#000"/><path opacity=".15" d="M397.658 174.063v19.813l-16.013 25.512v-19.541l16.013-25.784z" fill="#000"/><path d="M391.997 183.179l-.008 13.313-.003 6.421-.027 50.328v.003l-3.757 7.575.563-52.773.083-8.077v-.003l.128-11.923-90.765-5.594 4.098-4.435 89.688 5.165z" fill="#2F2E41"/><path d="M347.447 183.833l-6.359 13.812-.057 7.041-.579 69.755-15.261-1.009v-76.706l8.143-12.893h14.113z" fill="#2F2E41"/><path d="M326.503 184.763a20.167 20.167 0 0 1-11.374.399 4.569 4.569 0 0 1-1.996-.925 5.175 5.175 0 0 1-1.234-2.445 19.312 19.312 0 0 1-1.089-5.853c.045-1.992.808-4.072 2.433-5.225.331-.199.64-.432.924-.694.339-.428.583-.923.716-1.453 1.112-3.317 3.267-6.819 6.725-7.35 3.19-.49 6.093 1.738 8.551 3.83l5.395 4.591a8.515 8.515 0 0 1 12.692-4.12 8.511 8.511 0 0 1 3.18 3.904 30.185 30.185 0 0 1 12.001-8.235c1.022-.381 2.223-.691 3.154-.124a3.621 3.621 0 0 1 1.256 1.684 25.927 25.927 0 0 1 2.338 10.228 1.792 1.792 0 0 1 2.08.717 4.73 4.73 0 0 1 .693 2.255c.144 1.233.215 2.474.215 3.715-.001 1.309-.122 2.723-.975 3.716-1.103 1.283-3.006 1.418-4.698 1.459.815.722.417 2.178-.483 2.79-.901.611-2.066.623-3.155.612-4.197-.041-8.662-.16-12.153-2.49-1.379-.92-2.533-2.145-3.916-3.06-3.387-2.242-7.641-2.349-11.562-2.163-3.539.167-6.348 3.108-9.718 4.237z" fill="#2F2E41"/><path d="M325.733 183.833s-35.012 4.886-39.897 26.056l7.328-1.086 5.157 9.228s5.428-20.627 21.441-25.513c16.014-4.885 21.713-5.699 21.713-5.699s11.128 2.714 21.17 35.012l5.7-7.871 10.042 2.171s-7.328-25.241-27.141-32.298h-25.513z" fill="#2F2E41"/></g><defs><clipPath id="a"><path fill="#fff" d="M0 0h700v545.131H0z"/></clipPath></defs></svg>

<svg width="700" height="546" viewBox="0 0 700 546" fill="none" xmlns="http://www.w3.org/2000/svg">
<g clip-path="url(#clip0)">
<path opacity="0.2" d="M549.307 202.782C519.867 87.0185 418.144 3.45372 298.743 0.102011C235.62 -1.66995 169.196 19.2654 120.835 92.5256C34.3836 223.486 126.147 313.984 190.123 356.987C221.03 377.804 248.88 402.835 272.865 431.355C316.078 482.635 399.21 546.356 498.217 446.514C569.978 374.148 568.916 279.891 549.307 202.782Z" fill="#F2F2F2"/>
<path d="M700 228.558C700 258.603 675.644 306.554 645.599 306.554C615.554 306.554 591.198 258.603 591.198 228.558C591.198 214.13 596.93 200.293 607.132 190.091C617.334 179.889 631.171 174.157 645.599 174.157C660.027 174.157 673.864 179.889 684.066 190.091C694.268 200.293 700 214.13 700 228.558V228.558Z" fill="#FF6584"/>
<path d="M647.614 308.489C640.778 310.843 639.141 320.165 641.493 327.002C643.844 333.84 648.824 339.511 651.33 346.293C652.474 349.714 653.294 353.234 653.782 356.807C655.213 365.315 656.649 373.973 655.546 382.53C654.5 390.647 651.211 398.3 647.542 405.616C640.436 419.781 631.793 433.121 621.769 445.395" stroke="#2F2E41" stroke-width="2"/>
<path d="M650.842 311.798C647.347 309.554 643.851 309.554 640.355 311.798V301.311H650.842V311.798Z" fill="#FF6584"/>
<path d="M640.383 306.332C642.012 307.157 643.814 307.583 645.641 307.576C647.467 307.568 649.266 307.127 650.888 306.289" stroke="#2F2E41" stroke-width="2"/>
<path opacity="0.4" d="M668.211 219.382C674.546 219.382 679.681 213.22 679.681 205.618C679.681 198.016 674.546 191.854 668.211 191.854C661.877 191.854 656.741 198.016 656.741 205.618C656.741 213.22 661.877 219.382 668.211 219.382Z" fill="white"/>
<path d="M0 220.037C0 250.082 24.3561 298.034 54.4008 298.034C84.4455 298.034 108.802 250.082 108.802 220.037C108.802 205.609 103.07 191.772 92.8679 181.57C82.6658 171.368 68.8287 165.637 54.4008 165.637C39.9728 165.637 26.1357 171.368 15.9336 181.57C5.73149 191.772 0 205.609 0 220.037V220.037Z" fill="#FF6584"/>
<path d="M52.3863 299.968C59.2227 302.322 60.8594 311.645 58.5079 318.482C56.1564 325.319 51.1761 330.991 48.6702 337.773C47.5268 341.193 46.706 344.713 46.2185 348.287C44.787 356.795 43.3515 365.453 44.4545 374.009C45.5009 382.127 48.7895 389.779 52.4585 397.095C59.5642 411.261 68.2074 424.6 78.2319 436.874" stroke="#2F2E41" stroke-width="2"/>
<path d="M49.1572 303.277C52.6529 301.034 56.1485 301.034 59.6441 303.277V292.79H49.1572V303.277Z" fill="#FF6584"/>
<path d="M59.6169 297.812C57.9875 298.637 56.1854 299.063 54.3589 299.055C52.5325 299.048 50.734 298.607 49.1113 297.768" stroke="#2F2E41" stroke-width="2"/>
<path opacity="0.4" d="M31.7884 210.861C38.1231 210.861 43.2584 204.699 43.2584 197.097C43.2584 189.496 38.1231 183.333 31.7884 183.333C25.4537 183.333 20.3184 189.496 20.3184 197.097C20.3184 204.699 25.4537 210.861 31.7884 210.861Z" fill="white"/>
<path d="M660.674 459.27C660.674 490.219 515.125 545.131 335.581 545.131C156.036 545.131 27.5283 433.852 27.5283 402.903C27.5283 371.953 156.036 433.052 335.581 433.052C515.125 433.052 660.674 428.32 660.674 459.27Z" fill="#E1E1E1"/>
<path opacity="0.1" d="M660.674 459.27C660.674 490.219 515.125 545.131 335.581 545.131C156.036 545.131 27.5283 433.852 27.5283 402.903C27.5283 371.953 156.036 433.052 335.581 433.052C515.125 433.052 660.674 428.32 660.674 459.27Z" fill="black"/>
<path d="M660.674 458.942C660.674 489.892 515.125 514.981 335.581 514.981C156.036 514.981 27.5283 433.852 27.5283 402.903C27.5283 371.953 156.036 402.903 335.581 402.903C515.125 402.903 660.674 427.992 660.674 458.942Z" fill="#E1E1E1"/>
<path d="M285.893 371.725L279.309 413.758C279.309 413.758 246.898 430.977 269.687 431.483C292.477 431.99 399.84 431.483 399.84 431.483C399.84 431.483 420.603 431.483 387.685 413.252L381.102 369.192L285.893 371.725Z" fill="#7F7E84"/>
<path opacity="0.1" d="M265.102 431.027C270.277 426.422 279.308 421.623 279.308 421.623L285.892 379.59L381.101 379.679L387.684 421.117C395.361 425.368 400.116 428.628 402.898 431.128C407.126 430.163 411.746 426.578 387.684 413.252L381.101 369.192L285.892 371.725L279.308 413.758C279.308 413.758 252.073 428.229 265.102 431.027Z" fill="black"/>
<path d="M532.382 78.755H133.599C125.27 78.755 118.518 85.5072 118.518 93.8365V362.467C118.518 370.796 125.27 377.549 133.599 377.549H532.382C540.711 377.549 547.464 370.796 547.464 362.467V93.8365C547.464 85.5072 540.711 78.755 532.382 78.755Z" fill="#7F7E84"/>
<path d="M533.03 94.7075H132.95V318.549H533.03V94.7075Z" fill="#E1E1E1"/>
<path d="M332.99 90.1497C334.389 90.1497 335.522 89.016 335.522 87.6175C335.522 86.219 334.389 85.0854 332.99 85.0854C331.592 85.0854 330.458 86.219 330.458 87.6175C330.458 89.016 331.592 90.1497 332.99 90.1497Z" fill="#F2F2F2"/>
<path d="M547.464 336.274V362.467C547.464 364.448 547.074 366.409 546.316 368.239C545.558 370.069 544.447 371.731 543.047 373.132C541.646 374.532 539.984 375.643 538.154 376.401C536.324 377.159 534.363 377.549 532.382 377.548H133.599C131.618 377.549 129.657 377.159 127.827 376.401C125.997 375.643 124.335 374.532 122.934 373.132C121.534 371.731 120.423 370.069 119.665 368.239C118.907 366.409 118.517 364.448 118.518 362.467V336.274H547.464Z" fill="#7F7E84"/>
<path d="M444.911 458.83V463.895H172.452V459.844L172.827 458.83L179.542 440.599H439.34L444.911 458.83Z" fill="#2F2E41"/>
<path d="M549.763 453.873C549.266 455.994 547.393 458.233 543.159 460.35C527.966 467.946 497.074 458.324 497.074 458.324C497.074 458.324 473.271 454.273 473.271 443.638C473.94 443.18 474.637 442.765 475.358 442.397C481.746 439.018 502.924 430.679 540.477 442.75C543.243 443.618 545.715 445.238 547.615 447.428C549.137 449.209 550.33 451.469 549.763 453.873Z" fill="#2F2E41"/>
<path opacity="0.1" d="M549.763 453.873C531.167 460.998 514.592 461.53 497.581 449.715C489.002 443.759 481.208 442.285 475.358 442.397C481.746 439.018 502.925 430.679 540.477 442.75C543.244 443.618 545.715 445.238 547.615 447.428C549.137 449.209 550.33 451.469 549.763 453.873Z" fill="black"/>
<path d="M526.447 449.715C530.083 449.715 533.03 448.808 533.03 447.689C533.03 446.57 530.083 445.663 526.447 445.663C522.811 445.663 519.863 446.57 519.863 447.689C519.863 448.808 522.811 449.715 526.447 449.715Z" fill="#F2F2F2"/>
<path d="M332.99 366.66C338.304 366.66 342.612 362.352 342.612 357.038C342.612 351.724 338.304 347.416 332.99 347.416C327.676 347.416 323.368 351.724 323.368 357.038C323.368 362.352 327.676 366.66 332.99 366.66Z" fill="#F2F2F2"/>
<path opacity="0.1" d="M444.911 458.83V463.895H172.452V459.844L172.827 458.83H444.911Z" fill="black"/>
<path d="M570.929 199.687C564.092 202.041 562.456 211.364 564.807 218.201C567.159 225.038 572.139 230.71 574.645 237.492C575.788 240.912 576.609 244.432 577.096 248.006C578.528 256.514 579.964 265.172 578.86 273.728C577.814 281.846 574.525 289.499 570.857 296.815C563.751 310.98 555.108 324.32 545.083 336.593" stroke="#2F2E41" stroke-width="2"/>
<path d="M623.315 119.757C623.315 149.801 598.959 197.753 568.914 197.753C538.87 197.753 514.514 149.801 514.514 119.757C514.514 105.329 520.245 91.4915 530.447 81.2894C540.649 71.0873 554.486 65.3558 568.914 65.3558C583.342 65.3558 597.179 71.0873 607.382 81.2894C617.584 91.4915 623.315 105.329 623.315 119.757V119.757Z" fill="#EE4744"/>
<path d="M574.158 202.996C570.662 200.753 567.167 200.753 563.671 202.996V192.509H574.158V202.996Z" fill="#EE4744"/>
<path d="M563.698 197.531C565.328 198.356 567.13 198.782 568.956 198.774C570.783 198.767 572.581 198.326 574.204 197.488" stroke="#2F2E41" stroke-width="2"/>
<path opacity="0.4" d="M591.527 110.581C597.861 110.581 602.997 104.418 602.997 96.8165C602.997 89.2148 597.861 83.0524 591.527 83.0524C585.192 83.0524 580.057 89.2148 580.057 96.8165C580.057 104.418 585.192 110.581 591.527 110.581Z" fill="white"/>
<path d="M395.622 189.126V245.851L380.627 276.105V276.108L380.151 277.063L340.452 274.441L325.191 273.432L289.771 271.092V203.239L325.191 204.238L341.03 204.686L381.102 205.818L395.622 189.126Z" fill="#FF5E5B"/>
<path opacity="0.1" d="M395.623 192.472V245.851L391.959 253.241V253.244L388.202 260.819V260.822L380.627 276.105L381.474 219.38L381.645 207.937L388.848 199.969V199.966L391.988 196.492L395.623 192.472Z" fill="black"/>
<path d="M397.658 174.063V193.876L395.622 197.119L391.985 202.913L388.764 208.046L381.645 219.388L381.474 219.38L286.65 214.503V194.961L286.89 194.704L298.21 182.449L302.308 178.014L309.72 169.991L397.658 174.063Z" fill="#FF5E5B"/>
<path opacity="0.1" d="M381.645 199.847V219.388L286.65 214.503V194.961L286.89 194.704L381.645 199.847Z" fill="black"/>
<path opacity="0.15" d="M397.658 174.063V193.876L381.645 219.388V199.847L397.658 174.063Z" fill="black"/>
<path d="M391.997 183.179L391.989 196.492L391.986 202.913L391.959 253.241V253.244L388.202 260.819L388.765 208.046L388.848 199.969V199.966L388.976 188.043L298.211 182.449L302.309 178.014L391.997 183.179Z" fill="#2F2E41"/>
<path d="M347.447 183.833L341.088 197.645L341.031 204.686L340.452 274.441L325.191 273.432V196.726L333.334 183.833H347.447Z" fill="#2F2E41"/>
<path d="M326.503 184.763C322.829 185.985 318.88 186.124 315.129 185.162C314.398 185.021 313.713 184.703 313.133 184.237C312.51 183.548 312.083 182.703 311.899 181.792C311.236 179.909 310.868 177.935 310.81 175.939C310.855 173.947 311.618 171.867 313.243 170.714C313.574 170.515 313.883 170.282 314.167 170.02C314.506 169.592 314.75 169.097 314.883 168.567C315.995 165.25 318.15 161.748 321.608 161.217C324.798 160.727 327.701 162.955 330.159 165.047L335.554 169.638C336.153 168.029 337.224 166.638 338.627 165.649C340.03 164.66 341.699 164.118 343.416 164.095C345.133 164.071 346.816 164.567 348.246 165.518C349.675 166.469 350.784 167.829 351.426 169.422C354.695 165.739 358.815 162.912 363.427 161.187C364.449 160.806 365.65 160.496 366.581 161.063C367.157 161.488 367.594 162.074 367.837 162.747C369.305 165.961 370.101 169.442 370.175 172.975C370.552 172.846 370.962 172.846 371.339 172.976C371.715 173.106 372.038 173.358 372.255 173.692C372.673 174.373 372.911 175.149 372.948 175.947C373.092 177.18 373.163 178.421 373.163 179.662C373.162 180.971 373.041 182.385 372.188 183.378C371.085 184.661 369.182 184.796 367.49 184.837C368.305 185.559 367.907 187.015 367.007 187.627C366.106 188.238 364.941 188.25 363.852 188.239C359.655 188.198 355.19 188.079 351.699 185.749C350.32 184.829 349.166 183.604 347.783 182.689C344.396 180.447 340.142 180.34 336.221 180.526C332.682 180.693 329.873 183.634 326.503 184.763Z" fill="#2F2E41"/>
<path d="M325.733 183.833C325.733 183.833 290.721 188.719 285.836 209.889L293.164 208.803L298.321 218.031C298.321 218.031 303.749 197.404 319.762 192.518C335.776 187.633 341.475 186.819 341.475 186.819C341.475 186.819 352.603 189.533 362.645 221.831L368.345 213.96L378.387 216.131C378.387 216.131 371.059 190.89 351.246 183.833L325.733 183.833Z" fill="#2F2E41"/>
</g>
<defs>
<clipPath id="clip0">
<rect width="700" height="545.131" fill="white"/>
</clipPath>
</defs>
</svg>
